!!!COM: Dervishaldovic, Dino
!!!CDT: 1899-1977
!!!OTL: National Anthem, Bosnia Herzegovina
!!!ENC: Davis, Matthew J.
!!Vocal Line Only
**kern
*clefG2
*k[b-e-a-d-g-c-]
*G-:
*M4/4
=1-
4.g-
8d-
4g-
4a-
=2
4.b-
8cc-
4.dd-
8dd-
=3
4dd-
8cc-
8b-
8a-
8b-
8cc-
8dd-
=4
4.b-
8a-
2g-
=5
4.g-
8d-
4g-
4a-
=6
4.b-
8cc-
2dd-
=7
4dd-
8cc-
8b-
8a-
8b-
8cc-
8dd-
=8
4.b-
8a-
2g-
=9
4cc-
4cc-
8cc-
8dd-
8cc-
8b-
=10
4a-
8g-
8a-
2b-
=11
4g-
4a-
4b-
4a-
=12
8g-
8f
8e-
8f
2g-
=13
4ee-
4ee-
8ee-
8ff
8ee-
8dd-
=14
4cc-
8b-
8cc-
2dd-
=15
4b-
4cc-
4dd-
4ee-
=16
2dd
8cc-
8b-
4cc-
=17
1b-
==|!
*-
